icons/svg/blender.svg

﻿<?xml version="1.0" encoding="utf-8"?>
<!DOCTYPE svg PUBLIC "-//W3C//DTD SVG 1.1//EN" "http://www.w3.org/Graphics/SVG/1.1/DTD/svg11.dtd">
<svg xmlns="http://www.w3.org/2000/svg" xmlns:xlink="http://www.w3.org/1999/xlink" version="1.1" baseProfile="full" width="24" height="24" viewBox="0 0 24.00 24.00" enable-background="new 0 0 24.00 24.00" xml:space="preserve">
	<path fill="#000000" fill-opacity="1" stroke-width="1.33333" stroke-linejoin="miter" d="M 8,3C 7.99997,3.3386 8.17138,3.6854 8.48701,3.8762L 12,6L 2.5,6C 1.669,6 1,6.6689 1,7.5C 1,8.3311 1.669,9 2.5,9L 8.40625,9L 2,13C 1.16253,13.5234 1,14.219 1,15C 1,15.9907 1.7676,17 3,17C 3.68997,17 4.39132,16.4869 5,16L 7,14.375C 7.19818,18.6169 10.709,22 15,22C 19.4183,22 23,18.4183 23,14C 23,11.0774 21.4337,8.5208 19.0938,7.125C 19.0616,7.106 19.0333,7.08 19,7.063C 19,7.063 18.9173,7.004 18.8594,6.965C 15.7604,4.877 13.0328,3.7192 9.54791,2.1317C 9.34306,2.0387 9.16125,1.9996 9,2C 8.39875,2 8.00005,2.4629 8,3 Z M 15,9C 17.7614,9 20,11.2386 20,14C 20,16.7613 17.7614,19 15,19C 12.2386,19 10,16.7613 10,14C 10,11.2386 12.2386,9 15,9 Z M 15,10.5C 13.067,10.5 11.5,12.067 11.5,14C 11.5,15.933 13.067,17.5 15,17.5C 16.933,17.5 18.5,15.933 18.5,14C 18.5,12.067 16.933,10.5 15,10.5 Z "/>
</svg>

<svg xmlns="http://www.w3.org/2000/svg" version="1.1" baseProfile="full" width="24" height="24" viewBox="0 0 24.00 24.00" xml:space="preserve"><path fill="#000" fill-opacity="1" stroke-width="1.333" stroke-linejoin="miter" d="M8 3c0 .34.17.685.487.876L12 6H2.5C1.67 6 1 6.67 1 7.5S1.67 9 2.5 9h5.906L2 13c-.837.523-1 1.22-1 2 0 .99.768 2 2 2 .69 0 1.39-.513 2-1l2-1.625C7.198 18.617 10.71 22 15 22c4.418 0 8-3.582 8-8 0-2.923-1.566-5.48-3.906-6.875-.032-.02-.06-.045-.094-.062 0 0-.083-.06-.14-.098-3.1-2.088-5.827-3.246-9.312-4.833C9.343 2.04 9.16 2 9 2c-.6 0-1 .463-1 1zm7 6c2.76 0 5 2.24 5 5s-2.24 5-5 5-5-2.24-5-5 2.24-5 5-5zm0 1.5c-1.933 0-3.5 1.567-3.5 3.5s1.567 3.5 3.5 3.5 3.5-1.567 3.5-3.5-1.567-3.5-3.5-3.5z"/></svg>
